images/products-tubs-icon-1.svg

<svg width="20" height="22" viewBox="0 0 20 22" fill="none" xmlns="http://www.w3.org/2000/svg">
<path d="M9.90045 1.24707C10.1803 1.24707 10.5015 1.43926 10.839 1.91956C11.1712 2.3925 11.4813 3.0942 11.7462 3.9853C12.2748 5.76406 12.6055 8.23727 12.6055 10.9804C12.6055 13.7235 12.2748 16.1967 11.7462 17.9755C11.4813 18.8666 11.1712 19.5683 10.839 20.0413C10.5015 20.5215 10.1803 20.7137 9.90045 20.7137C9.62051 20.7137 9.29931 20.5215 8.96185 20.0413C8.62958 19.5683 8.31951 18.8666 8.05465 17.9755C7.52605 16.1967 7.19531 13.7235 7.19531 10.9804C7.19531 8.23727 7.52605 5.76406 8.05465 3.9853C8.31951 3.0942 8.62958 2.3925 8.96185 1.91956C9.29931 1.43926 9.62051 1.24707 9.90045 1.24707Z" stroke="black" stroke-width="1.33333"/>
<path d="M18.2992 15.6986C18.1408 15.9782 17.7872 16.1697 17.2045 16.2282C16.6273 16.2861 15.8692 16.2076 14.9771 15.9952C13.1952 15.571 10.9242 14.6239 8.59118 13.2504C6.25809 11.8769 4.31821 10.3449 3.06703 8.98345C2.44057 8.30185 1.99484 7.67165 1.75543 7.13297C1.51372 6.58914 1.49959 6.18108 1.65787 5.90154C1.81615 5.622 2.16977 5.43044 2.7525 5.37198C3.32969 5.31406 4.08779 5.39258 4.97995 5.60498C6.76171 6.02917 9.03278 6.97626 11.3658 8.34978C13.6989 9.72332 15.6388 11.2553 16.89 12.6167C17.5164 13.2983 17.9622 13.9285 18.2016 14.4672C18.4433 15.011 18.4574 15.4191 18.2992 15.6986Z" stroke="black" stroke-width="1.33333"/>
<path d="M18.3421 6.00212C18.5004 6.28167 18.4863 6.68972 18.2446 7.23356C18.0052 7.7722 17.5594 8.4024 16.933 9.08407C15.6818 10.4455 13.7419 11.9774 11.4088 13.3509C9.07576 14.7245 6.8047 15.6715 5.02291 16.0957C4.13076 16.3081 3.37265 16.3867 2.79547 16.3287C2.21274 16.2703 1.85911 16.0787 1.70083 15.7992C1.54256 15.5197 1.55669 15.1116 1.7984 14.5677C2.0378 14.0291 2.48354 13.3989 3.11 12.7173C4.36118 11.3559 6.30106 9.82394 8.63416 8.4504C10.9672 7.07684 13.2382 6.12976 15.02 5.70556C15.9122 5.49317 16.6703 5.41465 17.2475 5.47256C17.8302 5.53103 18.1838 5.72258 18.3421 6.00212Z" stroke="black" stroke-width="1.33333"/>
</svg>

<svg width="20" height="22" fill="none" xmlns="http://www.w3.org/2000/svg"><path d="M9.9 1.247c.28 0 .601.192.939.673.332.473.642 1.174.907 2.065.529 1.78.86 4.252.86 6.995 0 2.743-.331 5.217-.86 6.995-.265.892-.575 1.593-.907 2.066-.338.48-.659.673-.939.673-.28 0-.6-.192-.938-.673-.332-.473-.642-1.174-.907-2.066-.529-1.778-.86-4.252-.86-6.995 0-2.743.331-5.216.86-6.995.265-.89.575-1.592.907-2.065.337-.48.659-.673.938-.673z" stroke="#000" stroke-width="1.333"/><path d="M18.3 15.699c-.16.28-.513.47-1.096.53-.577.057-1.335-.021-2.227-.234-1.782-.424-4.053-1.371-6.386-2.745-2.333-1.373-4.273-2.905-5.524-4.267-.626-.681-1.072-1.311-1.312-1.85-.241-.544-.255-.952-.097-1.231.158-.28.512-.472 1.095-.53.577-.058 1.335.02 2.227.233 1.782.424 4.053 1.371 6.386 2.745 2.333 1.373 4.273 2.905 5.524 4.267.626.681 1.072 1.311 1.312 1.85.241.544.255.952.097 1.232z" stroke="#000" stroke-width="1.333"/><path d="M18.342 6.002c.158.28.144.688-.097 1.232-.24.538-.686 1.168-1.312 1.85-1.251 1.361-3.191 2.893-5.524 4.267-2.333 1.373-4.604 2.32-6.386 2.745-.892.212-1.65.29-2.228.233-.582-.059-.936-.25-1.094-.53-.158-.28-.144-.687.097-1.231.24-.539.686-1.17 1.312-1.85 1.251-1.362 3.191-2.894 5.524-4.268 2.333-1.373 4.604-2.32 6.386-2.744.892-.213 1.65-.291 2.227-.233.583.058.937.25 1.095.53z" stroke="#000" stroke-width="1.333"/></svg>
